X: 8
T: Gongchan dang xiang taiyang
%%abc-version 2.0
%%abcx-abcm2ps-target-version 5.9.1 (29 Sep 2008)
%%abc-creator hum2abc beta
%%abcx-conversion-date 2013/10/02 07:44:27
%%abc-edited-by Helmut Schaffrath
%%humdrum-veritas 4077929453
%%humdrum-veritas-data 4028418223
%%continueall 1
%%barnumbers 0
L: 1/8
M: 2/4
K: G
G d e/ d/ e/ d/ [I:setbarnb 1]| 
d e/ d/B2 | 
d3e | 
B B e/ d/ B- | 
B4 | 
e/ e/ d e/ d/ B | 
ed2e | 
B4- | 
B4 | 
e d B/ d/ e/ d/ | 
G d e/ d/ B | 
d3e | 
d> e G d | 
B4 | 
e d B d- | 
d3e | 
B4- | 
B4 |]  



